packages/sights/assets/overlays/R_f4g8MN.svg

<svg width="500" height="375" fill="none" xmlns="http://www.w3.org/2000/svg"><path d="m7.25 106.17 30.25-3.67s68-47 101-56c0 0 100-38 274 8 0 0 34 11.58 80.5 38.29M7.25 294.57S44.5 307.5 56.5 359.5c0 0 339-134 344-132 0 0 24-77 61-84 0 0 25.6-5.91 16.22 29.18" stroke="#fff" stroke-miterlimit="10"/><path d="M36.7 317.39s1.2 35.83 0 40.47c0 0-1.89 11-4 11.81M453.81 146c6.32-.5 15.71 4.51 15.71 4.51 11.68 5.86 10.92 31-1.71 56.18-11.53 23-29 38-40.8 36l-7.51-2.2-22-10" stroke="#fff" stroke-miterlimit="10"/><path d="M474 191.71s10.5-11.21 13.5-17.21l5.25-10.05M122.5 146.5s16-17 35-23h8.72s19.2 10 29.24 23v11.3l-1 2.7s-16 7-33 5c0 0-23-1-33-9 .04 0-6.96-7-5.96-10Z" stroke="#fff" stroke-miterlimit="10"/><path d="M126 153.71s3.51 12.79 16.51 17.79l16.43-2.12 3-3.52M135.55 47.37s40.95 4.13 61.95 9.13c0 0-92 47-147 104 0 0-35.58.33-44.29-11.33" stroke="#fff" stroke-miterlimit="10"/><path d="M122.5 146.5s29.92 12 73 0l226-44c4-1 25-12 25-12l6-5.74V81.5c-120-61-233-22-233-22-60 21-143.28 106.36-143.28 106.36l1.28 1.64 50.39-9.28M76.22 166.86S67.5 186.5 66.5 195.5l1 24s16 95 31 112M50.5 160.5s-20 20.38-43.5 32.19" stroke="#fff" stroke-miterlimit="10"/><path d="M388.79 57.42S414.5 98.5 414.5 100.5c0 0 5 0 7 2l16.15 15.28s8.85 20.72-38.15 86.72c0 0-11 14-16 16 0 0-311 119.11-317 125.05l-12.7 4.11" stroke="#fff" stroke-miterlimit="10"/><path d="M303.23 47.22s11.43 57.46 7.35 76.87l2.92 34.41s-4 49-9 62l2 8v4l.88 17.28" stroke="#fff" stroke-miterlimit="10"/><path d="m273.5 162.5 5 3h4s11-2 12-3l1-2-2-3s6-2 10-2l4 4-1 4-1 1s-31 9-36 9h-2.84l-2.16-3 2-5s4-3 7-3ZM405.5 133.5s-5 1-5 4c0 0 0 3 2 4 0 0 15-1 24-4l2-3v-1l-2-3s-5-1-8 0l3 3-1 1s-12 2-15-1Z" stroke="#fff" stroke-miterlimit="10"/></svg>

<svg width="500" height="375" viewBox="0 0 500 375" fill="none" xmlns="http://www.w3.org/2000/svg">
<path d="M7.25 106.17L37.5 102.5C37.5 102.5 105.5 55.5 138.5 46.5C138.5 46.5 238.5 8.49999 412.5 54.5C412.5 54.5 446.5 66.08 493 92.79" stroke="white" stroke-miterlimit="10"/>
<path d="M7.25 294.57C7.25 294.57 44.5 307.5 56.5 359.5C56.5 359.5 395.5 225.5 400.5 227.5C400.5 227.5 424.5 150.5 461.5 143.5C461.5 143.5 487.1 137.59 477.72 172.68" stroke="white" stroke-miterlimit="10"/>
<path d="M36.7002 317.39C36.7002 317.39 37.9002 353.22 36.7002 357.86C36.7002 357.86 34.8102 368.86 32.7002 369.67" stroke="white" stroke-miterlimit="10"/>
<path d="M453.81 146C460.13 145.5 469.52 150.51 469.52 150.51C481.2 156.37 480.44 181.51 467.81 206.69C456.28 229.69 438.81 244.69 427.01 242.69L419.5 240.49L397.5 230.49" stroke="white" stroke-miterlimit="10"/>
<path d="M474 191.71C474 191.71 484.5 180.5 487.5 174.5L492.75 164.45" stroke="white" stroke-miterlimit="10"/>
<path d="M122.5 146.5C122.5 146.5 138.5 129.5 157.5 123.5H166.22C166.22 123.5 185.42 133.5 195.46 146.5V157.8L194.46 160.5C194.46 160.5 178.46 167.5 161.46 165.5C161.46 165.5 138.46 164.5 128.46 156.5C128.5 156.5 121.5 149.5 122.5 146.5Z" stroke="white" stroke-miterlimit="10"/>
<path d="M126 153.71C126 153.71 129.51 166.5 142.51 171.5L158.94 169.38L161.94 165.86" stroke="white" stroke-miterlimit="10"/>
<path d="M135.55 47.3701C135.55 47.3701 176.5 51.5001 197.5 56.5001C197.5 56.5001 105.5 103.5 50.5 160.5C50.5 160.5 14.92 160.83 6.20996 149.17" stroke="white" stroke-miterlimit="10"/>
<path d="M122.5 146.5C122.5 146.5 152.42 158.5 195.5 146.5L421.5 102.5C425.5 101.5 446.5 90.5 446.5 90.5L452.5 84.76V81.5C332.5 20.5 219.5 59.5 219.5 59.5C159.5 80.5 76.2197 165.86 76.2197 165.86L77.4997 167.5L127.89 158.22" stroke="white" stroke-miterlimit="10"/>
<path d="M76.22 166.86C76.22 166.86 67.5 186.5 66.5 195.5L67.5 219.5C67.5 219.5 83.5 314.5 98.5 331.5" stroke="white" stroke-miterlimit="10"/>
<path d="M50.5 160.5C50.5 160.5 30.5 180.88 7 192.69" stroke="white" stroke-miterlimit="10"/>
<path d="M388.79 57.4199C388.79 57.4199 414.5 98.4999 414.5 100.5C414.5 100.5 419.5 100.5 421.5 102.5L437.65 117.78C437.65 117.78 446.5 138.5 399.5 204.5C399.5 204.5 388.5 218.5 383.5 220.5C383.5 220.5 72.4998 339.61 66.4998 345.55L53.7998 349.66" stroke="white" stroke-miterlimit="10"/>
<path d="M303.23 47.22C303.23 47.22 314.66 104.68 310.58 124.09L313.5 158.5C313.5 158.5 309.5 207.5 304.5 220.5L306.5 228.5V232.5L307.38 249.78" stroke="white" stroke-miterlimit="10"/>
<path d="M273.5 162.5L278.5 165.5H282.5C282.5 165.5 293.5 163.5 294.5 162.5L295.5 160.5L293.5 157.5C293.5 157.5 299.5 155.5 303.5 155.5L307.5 159.5L306.5 163.5L305.5 164.5C305.5 164.5 274.5 173.5 269.5 173.5H266.66L264.5 170.5L266.5 165.5C266.5 165.5 270.5 162.5 273.5 162.5Z" stroke="white" stroke-miterlimit="10"/>
<path d="M405.5 133.5C405.5 133.5 400.5 134.5 400.5 137.5C400.5 137.5 400.5 140.5 402.5 141.5C402.5 141.5 417.5 140.5 426.5 137.5L428.5 134.5V133.5L426.5 130.5C426.5 130.5 421.5 129.5 418.5 130.5L421.5 133.5L420.5 134.5C420.5 134.5 408.5 136.5 405.5 133.5Z" stroke="white" stroke-miterlimit="10"/>
</svg>
